rospo-icon-theme-classic-common/32x32/apps/com.github.rickybas.date-countdown.svg

<svg height="32" viewBox="0 0 32 32" width="32" xmlns="http://www.w3.org/2000/svg"><path d="m16 3v14h-14a14 14 0 0 0 14 14 14 14 0 0 0 14-14 14 14 0 0 0 -14-14z" opacity=".2"/><path d="m16 2a2 2 0 0 0 -2 2 2 2 0 0 0 2 2v11h-10a2 2 0 0 0 -2-2 2 2 0 0 0 -2 2 2 2 0 0 0  .1191406.673828 14 14 0 0 0 13.8808594 12.326172 14 14 0 0 0 14-14 14 14 0 0 0 -14-14z" fill="#4c91d9"/><circle cx="16" cy="17" opacity=".2" r="10"/><circle cx="16" cy="16" fill="#fff" r="10"/><path d="m16 2c-1.104569 0-2 .8954305-2 2 .000637.1674104.02229.3340785.06445.4960938.229411-.8811459 1.02503-1.4961248 1.93555-1.4960938 7.56479.0082995 13.754785 6.0244528 13.978516 13.585938.011251-.195141.018414-.390497.021484-.585938 0-7.7319865-6.268014-14-14-14zm-12 13c-1.1045695 0-2 .895431-2 2 .0016.166184.023907.331522.066406.492188.2307171-.878893 1.0249234-1.491795 1.933594-1.492188 1.1045695 0 2 .895431 2 2v-1c0-1.104569-.8954305-2-2-2z" fill="#fff" opacity=".2"/></svg>

<svg xmlns="http://www.w3.org/2000/svg" width="32" height="32" version="1.1" viewBox="0 0 32 32">
 <path style="opacity:0.2" d="M 16 3 L 16 17 L 2 17 A 14 14 0 0 0 16 31 A 14 14 0 0 0 30 17 A 14 14 0 0 0 16 3 z"/>
 <path style="fill:#4c91d9" d="M 16 2 A 2 2 0 0 0 14 4 A 2 2 0 0 0 16 6 L 16 17 L 6 17 A 2 2 0 0 0 4 15 A 2 2 0 0 0 2 17 A 2 2 0 0 0 2.1191406 17.673828 A 14 14 0 0 0 16 30 A 14 14 0 0 0 30 16 A 14 14 0 0 0 16 2 z"/>
 <circle style="opacity:0.2" cx="16" cy="17" r="10"/>
 <circle style="fill:#ffffff" cx="16" cy="16" r="10"/>
 <path style="opacity:0.2;fill:#ffffff" d="m 16,2 c -1.104569,0 -2,0.8954305 -2,2 6.37e-4,0.1674104 0.02229,0.3340785 0.06445,0.4960938 C 14.293861,3.6149479 15.08948,2.999969 16,3 23.56479,3.0082995 29.754785,9.0244528 29.978516,16.585938 29.989767,16.390797 29.99693,16.195441 30,16 30,8.2680135 23.731986,2 16,2 Z M 4,15 c -1.1045695,0 -2,0.895431 -2,2 0.0016,0.166184 0.023907,0.331522 0.066406,0.492188 C 2.2971231,16.613295 3.0913294,16.000393 4,16 c 1.1045695,0 2,0.895431 2,2 L 6,17 C 6,15.895431 5.1045695,15 4,15 Z"/>
</svg>
